X:1839
T:Bourree de Cusset
C:traditionell
Z:abc transcription Simon Wascher
N:please mail errors to: simon.wascher@chello.at
M:2/4
L:1/8
K:D
A3B|G3G|FE FG|A/2G/2A/2B/2 AF/2G/2|
A3B|G3G|FE GF|D4:|
|:DE FG|A/2G/2A/2B/2 Ad|cd ed|A/2G/2A/2B/2 AF|
DE FG|A/2G/2A/2B/2 AA|GE GF|D4:|


